!!!!SEGMENT: pl-wtm--r-2548--004_hertz-michal--jak-wam-sie-podoba-no-4.krn
!!!cenid: 18xx:3111
!!!COM: Hertz, Michał
!!!COM-rismID: pe41023359
!!!CDT: 1844/09/28-~1918
!!!CNT: Polish
!!!GTL: Jak wam się podoba
!!!OTL: No. 4
!!!PDT:
!!!AGN:
!!!SMS-siglum: PL-Wtm
!!!SMS-shelfmark: R 2548
!!!SMS-shelfwork: 004 G
!!!SMS-variant:
!!!SMS-altvar:
!!!NIFC-rismSourceID: 1001082244
!!!NIFC-islandoraID:
!!!URL-pdf-islandora:
!!!URL-scan:
!!!ONB-nifc:
!!!AIN: 1 violn
!!!key: G
!!!OMD: Allegro mod.
**kern	**dynam
*group1	*
*I"[Violino 1]	*
*Ivioln	*
*ICstr	*
*I'Vn I	*
*clefG2	*
*k[f#]	*
*G:	*
*M6/8	*
*^	*
!LO:TX:t=P:problem=all\middle&colon; global	!LO:TX:t=P:problem=all\middle&colon; global	!LO:DY:rj
8d/	8d\	f
*v	*v	*
=1	=1
!LO:TX:t=P:4\right:problem	!
[<4.b\ [>\4.dd	.
8b\L] 8dd\]	.
8g'>\ 8b\	.
8B'>\J 8g\	.
=2	=2
*^	*
[<4.d/ [>/4.a	4.ryy	.
8d/] 8a/]	8ryy	.
8r	8ryy	pp
8d/	8d\	.
*v	*v	*
=3	=3
!LO:TX:t=P:4\right:problem	!
!LO:TX:t=P:problem=niezidentyfikowany wyraz pod pięciolinią	!
[<4.b\ [>\4.dd	.
8b\L] 8dd\]	.
8g'>\ 8b\	.
8B'>\J 8g\	.
=4	=4
[<4.d/ [>/4.a'>	.
8d/] 8a/]	.
8r;>	.
!LO:TX:a:t=a Tempo	!LO:DY:rj
8g\ 8b\	f
!!LO:LB:g=original
=5	=5
(>(<4d\ 4a\	.
8g\ 8b\	.
4B/) 4g/	.
!	!LO:DY:rj
8g\) 8b\	pp
=6	=6
(>(<4d/ 4a/	.
!LO:TX:t=P:problem=niezidentyfikowany wyraz pod pięciolinią	!
8g\ 8b\	.
4B/) 4g/	.
!LO:TX:t=P:problem=8\right	!
!LO:TX:b:t=a Tempo	!LO:DY:rj
8g\) 8b\	f
=7	=7
(<(>4.d/ 4.a/	.
8B/)) 8g/	.
8r	.
8g/ 8b/	pp
=8	=8
(<(>4.d/ 4.a/	.
8B/)) 8g/	.
8r	.
8g/ 8b/	f
!!LO:LB:g=original
=9	=9
(<(>2.d/ 2.a/	.
=10	=10
[<4.B/)) [>/4.g	.
8B/] 8g/]	.
8r	.
8r	.
==	==
*-	*-
!!!system-decoration: [(g1)]
!!!RDF**kern: > = above
!!!RDF**kern: < = below
!!!ENC: Marta Opryszak
!!!END: 2021-11-04
!!!EED: Jędrzej Mróz
!!!ESR: 2021-11-05
!!!YEC: Copyright 2022 Narodowy Instytut Fryderyka Chopina (https://polishscores.org)
!!!YEM: Licence CC BY 4.0 (https://creativecommons.org/licenses/by/4.0)
